X: 141002
Q: "Irish Reel."
M: C
L: 1/8
K: D
ug2 |\
fded cAAg | fdec d2(de) |\
fedc dAAB | =cAGE D2 :|\
(DE) |\
fdec dAAB | =cAGE D2 (DE) |\
fdec dAAB | =cAGE D2 |]


